svg/u1f971.svg

<svg viewBox="0 0 128 128" xmlns="http://www.w3.org/2000/svg">
  <defs>
    <linearGradient id="face-2_1_" gradientUnits="userSpaceOnUse" x1="64" x2="64" y1="118.8" y2="7">
      <stop offset="0.16" stop-color="#F4A223"/>
      <stop offset="0.33" stop-color="#F7C02B"/>
      <stop offset="0.81" stop-color="#FDE030" stop-opacity="0"/>
    </linearGradient>
    <radialGradient id="face_1_" cx="64" cy="62.8999" gradientUnits="userSpaceOnUse" r="56.9597">
      <stop offset="0.5" stop-color="#FDE030"/>
      <stop offset="0.92" stop-color="#F7C02B"/>
      <stop offset="1" stop-color="#F4A223"/>
    </radialGradient>
    <radialGradient id="prop-2_1_" cx="50.1401" cy="-80.7502" gradientTransform="matrix(1 0 0 -1 0 0)" gradientUnits="userSpaceOnUse" r="65.06">
      <stop offset="0.27" stop-color="#FFF176"/>
      <stop offset="1" stop-color="#FFC400"/>
    </radialGradient>
  </defs>
  <path id="face_2_" d="M64,118.8 C36.1,118.8 6,101.3 6,62.9 C6,24.5 36.1,7 64,7 C79.5,7 93.8,12.1 104.4,21.4 C115.9,31.6 122,46 122,62.9 C122,79.8 115.9,94.1 104.4,104.3 C93.8,113.6 79.4,118.8 64,118.8 Z" fill="url(#face_1_)"/>
  <path id="face-2_2_" d="M64,118.8 C36.1,118.8 6,101.3 6,62.9 C6,24.5 36.1,7 64,7 C79.5,7 93.8,12.1 104.4,21.4 C115.9,31.6 122,46 122,62.9 C122,79.8 115.9,94.1 104.4,104.3 C93.8,113.6 79.4,118.8 64,118.8 Z" fill="url(#face-2_1_)"/>
  <path d="M111.89,29.67 C117.22,38.27 120,48.51 120,59.9 C120,76.8 113.9,91.1 102.4,101.3 C91.8,110.6 77.4,115.8 62,115.8 C43.94,115.8 25,108.45 13.82,92.86 C24.58,110.52 44.82,118.8 64,118.8 C79.4,118.8 93.8,113.6 104.4,104.3 C115.9,94.1 122,79.8 122,62.9 C122,50.16 118.53,38.84 111.89,29.67 Z" fill="#EB8F00"/>
  <path id="mouth_2_" d="M91.54,85.31 A28.24 24.73 0 1 1 35.06,85.31 A28.24 24.73 0 1 1 91.54,85.31 Z" fill="#422B0D"/>
  <path d="M93.594,50.538 Q92.335,48.294 89.65,46.192 Q84.399,42.08 77.702,43.311 Q76.48,43.535 75.457,42.83 Q74.434,42.124 74.209,40.902 Q73.985,39.68 74.69,38.657 Q75.396,37.634 76.618,37.409 Q85.971,35.69 93.35,41.468 Q96.98,44.311 98.826,47.602 Q99.434,48.686 99.098,49.882 Q98.761,51.078 97.678,51.686 Q96.594,52.294 95.398,51.958 Q94.202,51.622 93.594,50.538 Z" fill="#35220B"/>
  <path d="M29.547,47.597 Q31.4,44.308 35.033,41.467 Q42.419,35.69 51.754,37.41 Q52.976,37.635 53.681,38.658 Q54.385,39.681 54.16,40.904 Q53.935,42.126 52.912,42.831 Q51.889,43.535 50.666,43.31 Q43.988,42.08 38.729,46.193 Q36.04,48.297 34.773,50.543 Q34.163,51.626 32.966,51.96 Q31.769,52.294 30.687,51.683 Q29.604,51.073 29.27,49.876 Q28.936,48.679 29.547,47.597 Z" fill="#35220B"/>
  <path id="prop-2_3_" d="M81.88,85.66 C79.66,82.48 73.88,85.73 73.88,85.73 C73.88,85.73 76.88,83.12 79.38,80.73 C80.98,79.2 82.38,75.94 81.07,73.73 C79.76,71.52 75.95,71.66 74.08,72.81 L66.75,77.31 C66.75,77.31 69.5,76.11 70.33,71.39 C70.85,69.48 69.73,67.51 67.82,66.99 C67.46,66.89 67.09,66.85 66.72,66.87 C64.99,67.02 63.34,67.66 61.95,68.71 C56.65,72.47 42.5,82.06 39.33,81.81 C38.1,81.71 37.99,81.52 40.58,75.98 C42.32,72.66 42.48,68.73 41.02,65.28 C40.17,63.28 36.25,62.73 35.02,64.66 C34.09,66.08 33.42,69.56 31.8,73.06 C29.08,78.81 22.81,86.53 22.3,87.29 C18.57,92.81 11.62,103.1 18.9,114.64 C25.34,124.86 40.04,125.34 47.57,122.64 C61.96,117.54 75.21,107.74 75.46,107.54 C78.08,105.46 80.46,102.41 79.38,99.63 C78.05,96.19 73.64,98.23 73.64,98.23 C76.19,96.68 78.48,94.73 80.41,92.45 C82.24,90.09 83.37,87.81 81.88,85.66 Z" fill="url(#prop-2_1_)"/>
  <path d="M81.6,93.37 C82.78,91.85 85.54,88.3 83.12,84.81 C82.25,83.58 81.04,82.81 79.63,82.57 C82,80.6 84.54,76 81.83,72.22 C80.82,70.81 78.89,69.71 75.82,70.42 C73.61,70.93 71.63,72.56 71.63,72.56 C71.7,72.29 73.44,67.38 67.43,66.16 C65.01,65.67 62.26,67.27 60.68,68.46 C51.55,74.94 39.7,81.1 40.1,80.25 C43.95,75.58 44.73,68.67 42.36,64.57 C41.52,62.58 36.4,61.09 34.73,63.83 C33.36,66.08 32.45,71.46 29.89,75.74 C27.91,79.05 18.87,90.44 17.24,96.08 C17.24,96.08 19.45,92.79 22.94,88.14 C26.65,83.18 31.69,76.76 33.18,73.69 C34.53,70.96 35.16,67.69 36.3,65.47 C36.86,64.54 39.13,63.66 40.59,66.52 C42.06,69.38 41.35,72.84 39.33,76.71 C37.25,81.15 36.33,81.32 37.27,82.3 C40.45,85.57 58.8,72.48 62.87,69.92 C64.03,69.04 65.41,68.51 66.8,68.38 C69.54,67.99 69.4,71.83 69.4,71.83 C68.63,74.98 68.14,74.98 65,77.62 C62.77,79.49 54.88,85.23 49.76,87.81 C49.76,87.81 49.85,88.98 52.22,88.31 C54.6,87.64 63.93,81.77 68.96,77.74 C68.96,77.74 75.48,72.17 78.26,72.95 C81.08,73.75 80.83,75.71 79.94,77.57 C79.05,79.43 76.75,81.67 73.09,84.46 C66.51,89.46 56.32,96.28 56.32,96.28 C56.32,96.28 56.53,97.28 58.51,96.71 C62.54,95.54 75.12,86.22 75.12,86.22 C76.1,85.46 79.38,84.41 80.66,86.56 C81.35,87.57 81.19,89.22 78.77,92.08 C75.89,95.51 67.1,101.49 59.46,105.83 C59.46,105.83 60.04,106.81 62.15,106.09 C64.25,105.37 72.98,100.06 74.36,99.6 C75.74,99.14 77.12,98.7 78.04,100.33 C79.13,102.58 77.67,104.36 74.78,106.66 C74.66,106.75 60.9,117.51 46.59,122.35 C39.03,124.91 30.58,123.59 20.89,117.26 C26.77,124.36 39.61,127.53 48.32,124.35 C62.97,118.99 76.53,109.1 76.64,109.01 C78.74,107.34 83.11,103.88 80.7,98.93 C80.07,97.82 79.23,97.13 78.31,96.74 C79.47,95.69 80.57,94.58 81.6,93.37 Z" fill="#EB8F00"/>
  <path d="M59.15,118.59 C63.51,118.81 67.6,118.71 67.6,118.71 C74.02,115.13 79.92,106.59 80.6,104.72 C81.28,102.85 56.3,118.44 59.15,118.59 Z" fill="#EB8F00"/>
</svg>

<svg viewBox="0 0 128 128" xmlns="http://www.w3.org/2000/svg">
  <g>
    <radialGradient id="face_1_" cx="64" cy="2880.8999" gradientTransform="matrix(1 0 0 1 0 -2818)" gradientUnits="userSpaceOnUse" r="56.9597">
      <stop offset="0.5" stop-color="#FDE030"/>
      <stop offset="0.92" stop-color="#F7C02B"/>
      <stop offset="1" stop-color="#F4A223"/>
    </radialGradient>
    <path id="face_2_" d="M64,118.8c-27.9,0-58-17.5-58-55.9S36.1,7,64,7c15.5,0,29.8,5.1,40.4,14.4 C115.9,31.6,122,46,122,62.9s-6.1,31.2-17.6,41.4C93.8,113.6,79.4,118.8,64,118.8z" fill="url(#face_1_)"/>
    <linearGradient id="face-2_1_" gradientTransform="matrix(1 0 0 1 0 -2818)" gradientUnits="userSpaceOnUse" x1="64" x2="64" y1="2936.8" y2="2825">
      <stop offset="0.16" stop-color="#F4A223"/>
      <stop offset="0.33" stop-color="#F7C02B"/>
      <stop offset="0.81" stop-color="#FDE030" stop-opacity="0"/>
    </linearGradient>
    <path id="face-2_2_" d="M64,118.8c-27.9,0-58-17.5-58-55.9S36.1,7,64,7c15.5,0,29.8,5.1,40.4,14.4 C115.9,31.6,122,46,122,62.9s-6.1,31.2-17.6,41.4C93.8,113.6,79.4,118.8,64,118.8z" fill="url(#face-2_1_)"/>
    <path d="M111.89,29.67c5.33,8.6,8.11,18.84,8.11,30.23c0,16.9-6.1,31.2-17.6,41.4 c-10.6,9.3-25,14.5-40.4,14.5c-18.06,0-37-7.35-48.18-22.94c10.76,17.66,31,25.94,50.18,25.94c15.4,0,29.8-5.2,40.4-14.5 C115.9,94.1,122,79.8,122,62.9C122,50.16,118.53,38.84,111.89,29.67z" fill="#EB8F00"/>
    <ellipse id="mouth_2_" cx="63.3" cy="85.31" rx="28.24" ry="24.73" fill="#422B0D"/>
    <path d="M96.21,49.07 c0,0-6.21-11.07-19.05-8.71" fill="none" stroke="#35220B" stroke-width="6" stroke-linecap="round" stroke-miterlimit="10"/>
    <path d="M32.16,49.07 c0,0,6.24-11.07,19.05-8.71" fill="none" stroke="#35220B" stroke-width="6" stroke-linecap="round" stroke-miterlimit="10"/>
    <radialGradient id="prop-2_1_" cx="50.1401" cy="49.2498" gradientTransform="matrix(1 0 0 -1 0 130)" gradientUnits="userSpaceOnUse" r="65.06">
      <stop offset="0.27" stop-color="#FFF176"/>
      <stop offset="1" stop-color="#FFC400"/>
    </radialGradient>
    <path id="prop-2_3_" d="M81.88,85.66c-2.22-3.18-8,0.07-8,0.07s3-2.61,5.5-5c1.6-1.53,3-4.79,1.69-7 s-5.12-2.07-6.99-0.92l-7.33,4.5c0,0,2.75-1.2,3.58-5.92c0.52-1.91-0.6-3.88-2.51-4.4c-0.36-0.1-0.73-0.14-1.1-0.12 c-1.73,0.15-3.38,0.79-4.77,1.84c-5.3,3.76-19.45,13.35-22.62,13.1c-1.23-0.1-1.34-0.29,1.25-5.83c1.74-3.32,1.9-7.25,0.44-10.7 c-0.85-2-4.77-2.55-6-0.62c-0.93,1.42-1.6,4.9-3.22,8.4c-2.72,5.75-8.99,13.47-9.5,14.23c-3.73,5.52-10.68,15.81-3.4,27.35 c6.44,10.22,21.14,10.7,28.67,8c14.39-5.1,27.64-14.9,27.89-15.1c2.62-2.08,5-5.13,3.92-7.91c-1.33-3.44-5.74-1.4-5.74-1.4 c2.55-1.55,4.84-3.5,6.77-5.78C82.24,90.09,83.37,87.81,81.88,85.66z" fill="url(#prop-2_1_)"/>
    <path d="M81.6,93.37c1.18-1.52,3.94-5.07,1.52-8.56c-0.87-1.23-2.08-2-3.49-2.24 c2.37-1.97,4.91-6.57,2.2-10.35c-1.01-1.41-2.94-2.51-6.01-1.8c-2.21,0.51-4.19,2.14-4.19,2.14c0.07-0.27,1.81-5.18-4.2-6.4 c-2.42-0.49-5.17,1.11-6.75,2.3c-9.13,6.48-20.98,12.64-20.58,11.79c3.85-4.67,4.63-11.58,2.26-15.68 c-0.84-1.99-5.96-3.48-7.63-0.74c-1.37,2.25-2.28,7.63-4.84,11.91c-1.98,3.31-11.02,14.7-12.65,20.34c0,0,2.21-3.29,5.7-7.94 c3.71-4.96,8.75-11.38,10.24-14.45c1.35-2.73,1.98-6,3.12-8.22c0.56-0.93,2.83-1.81,4.29,1.05c1.47,2.86,0.76,6.32-1.26,10.19 c-2.08,4.44-3,4.61-2.06,5.59c3.18,3.27,21.53-9.82,25.6-12.38c1.16-0.88,2.54-1.41,3.93-1.54c2.74-0.39,2.6,3.45,2.6,3.45 c-0.77,3.15-1.26,3.15-4.4,5.79c-2.23,1.87-10.12,7.61-15.24,10.19c0,0,0.09,1.17,2.46,0.5c2.38-0.67,11.71-6.54,16.74-10.57 c0,0,6.52-5.57,9.3-4.79c2.82,0.8,2.57,2.76,1.68,4.62s-3.19,4.1-6.85,6.89c-6.58,5-16.77,11.82-16.77,11.82s0.21,1,2.19,0.43 c4.03-1.17,16.61-10.49,16.61-10.49c0.98-0.76,4.26-1.81,5.54,0.34c0.69,1.01,0.53,2.66-1.89,5.52 c-2.88,3.43-11.67,9.41-19.31,13.75c0,0,0.58,0.98,2.69,0.26c2.1-0.72,10.83-6.03,12.21-6.49c1.38-0.46,2.76-0.9,3.68,0.73 c1.09,2.25-0.37,4.03-3.26,6.33c-0.12,0.09-13.88,10.85-28.19,15.69c-7.56,2.56-16.01,1.24-25.7-5.09 c5.88,7.1,18.72,10.27,27.43,7.09c14.65-5.36,28.21-15.25,28.32-15.34c2.1-1.67,6.47-5.13,4.06-10.08 c-0.63-1.11-1.47-1.8-2.39-2.19C79.47,95.69,80.57,94.58,81.6,93.37z" fill="#EB8F00"/>
    <path d="M59.15,118.59c4.36,0.22,8.45,0.12,8.45,0.12c6.42-3.58,12.32-12.12,13-13.99 C81.28,102.85,56.3,118.44,59.15,118.59z" fill="#EB8F00"/>
  </g>
</svg>
